images/3233012.svg

<?xml version="1.0" encoding="UTF-8"?>
<svg xmlns="http://www.w3.org/2000/svg" xmlns:xlink="http://www.w3.org/1999/xlink" width="300pt" height="300pt" viewBox="0 0 300 300" version="1.1">
<defs>
<g>
<symbol overflow="visible" id="glyph0-0">
<path style="stroke:none;" d="M 0.59375 2.125 L 0.59375 -8.46875 L 6.59375 -8.46875 L 6.59375 2.125 Z M 1.265625 1.453125 L 5.9375 1.453125 L 5.9375 -7.78125 L 1.265625 -7.78125 Z M 1.265625 1.453125 "/>
</symbol>
<symbol overflow="visible" id="glyph0-1">
<path style="stroke:none;" d="M 1.171875 -8.75 L 2.765625 -8.75 L 6.65625 -1.4375 L 6.65625 -8.75 L 7.796875 -8.75 L 7.796875 0 L 6.203125 0 L 2.328125 -7.3125 L 2.328125 0 L 1.171875 0 Z M 1.171875 -8.75 "/>
</symbol>
<symbol overflow="visible" id="glyph0-2">
<path style="stroke:none;" d="M 4.734375 -7.953125 C 3.867188 -7.953125 3.179688 -7.628906 2.671875 -6.984375 C 2.171875 -6.347656 1.921875 -5.472656 1.921875 -4.359375 C 1.921875 -3.265625 2.171875 -2.394531 2.671875 -1.75 C 3.179688 -1.113281 3.867188 -0.796875 4.734375 -0.796875 C 5.585938 -0.796875 6.265625 -1.113281 6.765625 -1.75 C 7.273438 -2.394531 7.53125 -3.265625 7.53125 -4.359375 C 7.53125 -5.472656 7.273438 -6.347656 6.765625 -6.984375 C 6.265625 -7.628906 5.585938 -7.953125 4.734375 -7.953125 Z M 4.734375 -8.90625 C 5.953125 -8.90625 6.925781 -8.492188 7.65625 -7.671875 C 8.394531 -6.847656 8.765625 -5.742188 8.765625 -4.359375 C 8.765625 -2.984375 8.394531 -1.882812 7.65625 -1.0625 C 6.925781 -0.238281 5.953125 0.171875 4.734375 0.171875 C 3.503906 0.171875 2.519531 -0.238281 1.78125 -1.0625 C 1.039062 -1.882812 0.671875 -2.984375 0.671875 -4.359375 C 0.671875 -5.742188 1.039062 -6.847656 1.78125 -7.671875 C 2.519531 -8.492188 3.503906 -8.90625 4.734375 -8.90625 Z M 4.734375 -8.90625 "/>
</symbol>
</g>
</defs>
<g id="surface55245">
<rect x="0" y="0" width="300" height="300" style="fill:rgb(100%,100%,100%);fill-opacity:1;stroke:none;"/>
<path style="fill:none;stroke-width:1.2;stroke-linecap:butt;stroke-linejoin:miter;stroke:rgb(0%,0%,0%);stroke-opacity:1;stroke-miterlimit:10;" d="M 264.75 161.226562 L 251.28125 154.625 "/>
<path style="fill:none;stroke-width:1.2;stroke-linecap:butt;stroke-linejoin:miter;stroke:rgb(0%,0%,100%);stroke-opacity:1;stroke-miterlimit:10;" d="M 251.28125 154.625 L 237.816406 148.027344 "/>
<path style="fill:none;stroke-width:1.2;stroke-linecap:butt;stroke-linejoin:miter;stroke:rgb(0%,0%,100%);stroke-opacity:1;stroke-miterlimit:10;" d="M 237.816406 148.027344 L 225.367188 156.390625 "/>
<path style="fill:none;stroke-width:1.2;stroke-linecap:butt;stroke-linejoin:miter;stroke:rgb(0%,0%,0%);stroke-opacity:1;stroke-miterlimit:10;" d="M 225.367188 156.390625 L 212.917969 164.753906 "/>
<path style="fill:none;stroke-width:1.2;stroke-linecap:butt;stroke-linejoin:miter;stroke:rgb(0%,0%,100%);stroke-opacity:1;stroke-miterlimit:10;" d="M 237.816406 148.027344 L 236.796875 133.066406 "/>
<path style="fill:none;stroke-width:1.2;stroke-linecap:butt;stroke-linejoin:miter;stroke:rgb(0%,0%,0%);stroke-opacity:1;stroke-miterlimit:10;" d="M 236.796875 133.066406 L 235.777344 118.101562 "/>
<path style=" stroke:none;fill-rule:nonzero;fill:rgb(100%,100%,100%);fill-opacity:1;" d="M 233.816406 141.027344 L 242.816406 141.027344 L 242.816406 155.027344 L 233.816406 155.027344 Z M 233.816406 141.027344 "/>
<g style="fill:rgb(0%,0%,100%);fill-opacity:1;">
  <use xlink:href="#glyph0-1" x="233.816406" y="152.166016"/>
</g>
<path style="fill:none;stroke-width:1.2;stroke-linecap:butt;stroke-linejoin:miter;stroke:rgb(0%,0%,0%);stroke-opacity:1;stroke-miterlimit:10;" d="M 212.917969 164.753906 L 214.957031 194.679688 "/>
<path style="fill:none;stroke-width:1.2;stroke-linecap:butt;stroke-linejoin:miter;stroke:rgb(0%,0%,0%);stroke-opacity:1;stroke-miterlimit:10;" d="M 214.957031 194.679688 L 240.363281 210.621094 "/>
<path style="fill:none;stroke-width:1.2;stroke-linecap:butt;stroke-linejoin:miter;stroke:rgb(0%,0%,0%);stroke-opacity:1;stroke-miterlimit:10;" d="M 213.746094 202.253906 L 234.070312 215.003906 "/>
<path style="fill:none;stroke-width:1.2;stroke-linecap:butt;stroke-linejoin:miter;stroke:rgb(100%,0%,0%);stroke-opacity:1;stroke-miterlimit:10;" d="M 191.941406 213.917969 L 203.449219 204.296875 "/>
<path style="fill:none;stroke-width:1.2;stroke-linecap:butt;stroke-linejoin:miter;stroke:rgb(0%,0%,0%);stroke-opacity:1;stroke-miterlimit:10;" d="M 203.449219 204.296875 L 214.957031 194.679688 "/>
<path style="fill:none;stroke-width:1.2;stroke-linecap:butt;stroke-linejoin:miter;stroke:rgb(0%,0%,0%);stroke-opacity:1;stroke-miterlimit:10;" d="M 240.363281 210.621094 L 233.054688 239.710938 "/>
<path style="fill:none;stroke-width:1.2;stroke-linecap:butt;stroke-linejoin:miter;stroke:rgb(0%,0%,0%);stroke-opacity:1;stroke-miterlimit:10;" d="M 233.054688 239.710938 L 203.128906 241.75 "/>
<path style="fill:none;stroke-width:1.2;stroke-linecap:butt;stroke-linejoin:miter;stroke:rgb(0%,0%,0%);stroke-opacity:1;stroke-miterlimit:10;" d="M 229.582031 232.875 L 205.640625 234.503906 "/>
<path style="fill:none;stroke-width:1.2;stroke-linecap:butt;stroke-linejoin:miter;stroke:rgb(0%,0%,0%);stroke-opacity:1;stroke-miterlimit:10;" d="M 203.128906 241.75 L 197.535156 227.832031 "/>
<path style="fill:none;stroke-width:1.2;stroke-linecap:butt;stroke-linejoin:miter;stroke:rgb(100%,0%,0%);stroke-opacity:1;stroke-miterlimit:10;" d="M 197.535156 227.832031 L 191.941406 213.917969 "/>
<path style=" stroke:none;fill-rule:nonzero;fill:rgb(100%,100%,100%);fill-opacity:1;" d="M 186.941406 206.917969 L 196.941406 206.917969 L 196.941406 220.917969 L 186.941406 220.917969 Z M 186.941406 206.917969 "/>
<g style="fill:rgb(100%,0%,0%);fill-opacity:1;">
  <use xlink:href="#glyph0-2" x="186.941406" y="218.056641"/>
</g>
<path style="fill:none;stroke-width:1.2;stroke-linecap:butt;stroke-linejoin:miter;stroke:rgb(0%,0%,0%);stroke-opacity:1;stroke-miterlimit:10;" d="M 235.777344 118.101562 L 248.226562 109.738281 "/>
<path style="fill:none;stroke-width:1.2;stroke-linecap:butt;stroke-linejoin:miter;stroke:rgb(0%,0%,100%);stroke-opacity:1;stroke-miterlimit:10;" d="M 248.226562 109.738281 L 260.675781 101.375 "/>
<path style="fill:none;stroke-width:1.2;stroke-linecap:butt;stroke-linejoin:miter;stroke:rgb(0%,0%,0%);stroke-opacity:1;stroke-miterlimit:10;" d="M 234.332031 110.570312 L 244.289062 103.878906 "/>
<path style="fill:none;stroke-width:1.2;stroke-linecap:butt;stroke-linejoin:miter;stroke:rgb(0%,0%,100%);stroke-opacity:1;stroke-miterlimit:10;" d="M 244.289062 103.878906 L 254.25 97.1875 "/>
<path style="fill:none;stroke-width:1.2;stroke-linecap:butt;stroke-linejoin:miter;stroke:rgb(0%,0%,0%);stroke-opacity:1;stroke-miterlimit:10;" d="M 208.84375 104.902344 L 235.777344 118.101562 "/>
<path style="fill:none;stroke-width:1.2;stroke-linecap:butt;stroke-linejoin:miter;stroke:rgb(0%,0%,100%);stroke-opacity:1;stroke-miterlimit:10;" d="M 260.675781 101.375 L 259.65625 86.414062 "/>
<path style="fill:none;stroke-width:1.2;stroke-linecap:butt;stroke-linejoin:miter;stroke:rgb(0%,0%,0%);stroke-opacity:1;stroke-miterlimit:10;" d="M 259.65625 86.414062 L 258.636719 71.449219 "/>
<path style=" stroke:none;fill-rule:nonzero;fill:rgb(100%,100%,100%);fill-opacity:1;" d="M 256.675781 94.375 L 265.675781 94.375 L 265.675781 108.375 L 256.675781 108.375 Z M 256.675781 94.375 "/>
<g style="fill:rgb(0%,0%,100%);fill-opacity:1;">
  <use xlink:href="#glyph0-1" x="256.675781" y="105.513672"/>
</g>
<path style="fill:none;stroke-width:1.2;stroke-linecap:butt;stroke-linejoin:miter;stroke:rgb(0%,0%,0%);stroke-opacity:1;stroke-miterlimit:10;" d="M 258.636719 71.449219 L 245.171875 64.851562 "/>
<path style="fill:none;stroke-width:1.2;stroke-linecap:butt;stroke-linejoin:miter;stroke:rgb(0%,0%,100%);stroke-opacity:1;stroke-miterlimit:10;" d="M 245.171875 64.851562 L 231.703125 58.25 "/>
<path style="fill:none;stroke-width:1.2;stroke-linecap:butt;stroke-linejoin:miter;stroke:rgb(0%,0%,0%);stroke-opacity:1;stroke-miterlimit:10;" d="M 252.839844 76.46875 L 242.066406 71.1875 "/>
<path style="fill:none;stroke-width:1.2;stroke-linecap:butt;stroke-linejoin:miter;stroke:rgb(0%,0%,100%);stroke-opacity:1;stroke-miterlimit:10;" d="M 242.066406 71.1875 L 231.289062 65.910156 "/>
<path style="fill:none;stroke-width:1.2;stroke-linecap:butt;stroke-linejoin:miter;stroke:rgb(0%,0%,100%);stroke-opacity:1;stroke-miterlimit:10;" d="M 231.703125 58.25 L 219.253906 66.613281 "/>
<path style="fill:none;stroke-width:1.2;stroke-linecap:butt;stroke-linejoin:miter;stroke:rgb(0%,0%,0%);stroke-opacity:1;stroke-miterlimit:10;" d="M 219.253906 66.613281 L 206.804688 74.980469 "/>
<path style=" stroke:none;fill-rule:nonzero;fill:rgb(100%,100%,100%);fill-opacity:1;" d="M 227.703125 51.25 L 236.703125 51.25 L 236.703125 65.25 L 227.703125 65.25 Z M 227.703125 51.25 "/>
<g style="fill:rgb(0%,0%,100%);fill-opacity:1;">
  <use xlink:href="#glyph0-1" x="227.703125" y="62.388672"/>
</g>
<path style="fill:none;stroke-width:1.2;stroke-linecap:butt;stroke-linejoin:miter;stroke:rgb(0%,0%,0%);stroke-opacity:1;stroke-miterlimit:10;" d="M 206.804688 74.980469 L 208.84375 104.902344 "/>
<path style="fill:none;stroke-width:1.2;stroke-linecap:butt;stroke-linejoin:miter;stroke:rgb(0%,0%,0%);stroke-opacity:1;stroke-miterlimit:10;" d="M 199.96875 78.449219 L 201.597656 102.390625 "/>
<path style="fill:none;stroke-width:1.2;stroke-linecap:butt;stroke-linejoin:miter;stroke:rgb(0%,0%,0%);stroke-opacity:1;stroke-miterlimit:10;" d="M 179.871094 61.78125 L 206.804688 74.980469 "/>
<path style="fill:none;stroke-width:1.2;stroke-linecap:butt;stroke-linejoin:miter;stroke:rgb(0%,0%,0%);stroke-opacity:1;stroke-miterlimit:10;" d="M 208.84375 104.902344 L 183.945312 121.632812 "/>
<path style="fill:none;stroke-width:1.2;stroke-linecap:butt;stroke-linejoin:miter;stroke:rgb(0%,0%,0%);stroke-opacity:1;stroke-miterlimit:10;" d="M 183.945312 121.632812 L 157.011719 108.433594 "/>
<path style="fill:none;stroke-width:1.2;stroke-linecap:butt;stroke-linejoin:miter;stroke:rgb(0%,0%,0%);stroke-opacity:1;stroke-miterlimit:10;" d="M 184.359375 113.972656 L 162.808594 103.414062 "/>
<path style="fill:none;stroke-width:1.2;stroke-linecap:butt;stroke-linejoin:miter;stroke:rgb(0%,0%,0%);stroke-opacity:1;stroke-miterlimit:10;" d="M 157.011719 108.433594 L 154.972656 78.507812 "/>
<path style="fill:none;stroke-width:1.2;stroke-linecap:butt;stroke-linejoin:miter;stroke:rgb(0%,0%,0%);stroke-opacity:1;stroke-miterlimit:10;" d="M 157.011719 108.433594 L 132.113281 125.160156 "/>
<path style="fill:none;stroke-width:1.2;stroke-linecap:butt;stroke-linejoin:miter;stroke:rgb(0%,0%,0%);stroke-opacity:1;stroke-miterlimit:10;" d="M 154.972656 78.507812 L 179.871094 61.78125 "/>
<path style="fill:none;stroke-width:1.2;stroke-linecap:butt;stroke-linejoin:miter;stroke:rgb(0%,0%,0%);stroke-opacity:1;stroke-miterlimit:10;" d="M 161.398438 82.691406 L 181.316406 69.3125 "/>
<path style="fill:none;stroke-width:1.2;stroke-linecap:butt;stroke-linejoin:miter;stroke:rgb(0%,0%,0%);stroke-opacity:1;stroke-miterlimit:10;" d="M 132.113281 125.160156 L 105.179688 111.960938 "/>
<path style="fill:none;stroke-width:1.2;stroke-linecap:butt;stroke-linejoin:miter;stroke:rgb(0%,0%,0%);stroke-opacity:1;stroke-miterlimit:10;" d="M 126.316406 130.175781 L 104.765625 119.621094 "/>
<path style="fill:none;stroke-width:1.2;stroke-linecap:butt;stroke-linejoin:miter;stroke:rgb(0%,0%,0%);stroke-opacity:1;stroke-miterlimit:10;" d="M 134.152344 155.085938 L 132.113281 125.160156 "/>
<path style="fill:none;stroke-width:1.2;stroke-linecap:butt;stroke-linejoin:miter;stroke:rgb(0%,0%,0%);stroke-opacity:1;stroke-miterlimit:10;" d="M 105.179688 111.960938 L 80.28125 128.6875 "/>
<path style="fill:none;stroke-width:1.2;stroke-linecap:butt;stroke-linejoin:miter;stroke:rgb(0%,0%,0%);stroke-opacity:1;stroke-miterlimit:10;" d="M 80.28125 128.6875 L 82.320312 158.613281 "/>
<path style="fill:none;stroke-width:1.2;stroke-linecap:butt;stroke-linejoin:miter;stroke:rgb(0%,0%,0%);stroke-opacity:1;stroke-miterlimit:10;" d="M 73.445312 132.160156 L 75.074219 156.101562 "/>
<path style="fill:none;stroke-width:1.2;stroke-linecap:butt;stroke-linejoin:miter;stroke:rgb(100%,0%,0%);stroke-opacity:1;stroke-miterlimit:10;" d="M 51.191406 121.378906 L 65.738281 125.035156 "/>
<path style="fill:none;stroke-width:1.2;stroke-linecap:butt;stroke-linejoin:miter;stroke:rgb(0%,0%,0%);stroke-opacity:1;stroke-miterlimit:10;" d="M 65.738281 125.035156 L 80.28125 128.6875 "/>
<path style="fill:none;stroke-width:1.2;stroke-linecap:butt;stroke-linejoin:miter;stroke:rgb(0%,0%,0%);stroke-opacity:1;stroke-miterlimit:10;" d="M 82.320312 158.613281 L 109.253906 171.8125 "/>
<path style="fill:none;stroke-width:1.2;stroke-linecap:butt;stroke-linejoin:miter;stroke:rgb(0%,0%,0%);stroke-opacity:1;stroke-miterlimit:10;" d="M 82.320312 158.613281 L 68.402344 164.207031 "/>
<path style="fill:none;stroke-width:1.2;stroke-linecap:butt;stroke-linejoin:miter;stroke:rgb(100%,0%,0%);stroke-opacity:1;stroke-miterlimit:10;" d="M 68.402344 164.207031 L 54.488281 169.800781 "/>
<path style="fill:none;stroke-width:1.2;stroke-linecap:butt;stroke-linejoin:miter;stroke:rgb(0%,0%,0%);stroke-opacity:1;stroke-miterlimit:10;" d="M 109.253906 171.8125 L 134.152344 155.085938 "/>
<path style="fill:none;stroke-width:1.2;stroke-linecap:butt;stroke-linejoin:miter;stroke:rgb(0%,0%,0%);stroke-opacity:1;stroke-miterlimit:10;" d="M 107.808594 164.28125 L 127.726562 150.898438 "/>
<path style="fill:none;stroke-width:1.2;stroke-linecap:butt;stroke-linejoin:miter;stroke:rgb(100%,0%,0%);stroke-opacity:1;stroke-miterlimit:10;" d="M 54.488281 169.800781 L 44.867188 158.292969 "/>
<path style="fill:none;stroke-width:1.2;stroke-linecap:butt;stroke-linejoin:miter;stroke:rgb(0%,0%,0%);stroke-opacity:1;stroke-miterlimit:10;" d="M 44.867188 158.292969 L 35.25 146.785156 "/>
<path style=" stroke:none;fill-rule:nonzero;fill:rgb(100%,100%,100%);fill-opacity:1;" d="M 49.488281 162.800781 L 59.488281 162.800781 L 59.488281 176.800781 L 49.488281 176.800781 Z M 49.488281 162.800781 "/>
<g style="fill:rgb(100%,0%,0%);fill-opacity:1;">
  <use xlink:href="#glyph0-2" x="49.488281" y="173.939453"/>
</g>
<path style="fill:none;stroke-width:1.2;stroke-linecap:butt;stroke-linejoin:miter;stroke:rgb(0%,0%,0%);stroke-opacity:1;stroke-miterlimit:10;" d="M 35.25 146.785156 L 43.21875 134.082031 "/>
<path style="fill:none;stroke-width:1.2;stroke-linecap:butt;stroke-linejoin:miter;stroke:rgb(100%,0%,0%);stroke-opacity:1;stroke-miterlimit:10;" d="M 43.21875 134.082031 L 51.191406 121.378906 "/>
<path style=" stroke:none;fill-rule:nonzero;fill:rgb(100%,100%,100%);fill-opacity:1;" d="M 46.191406 114.378906 L 56.191406 114.378906 L 56.191406 128.378906 L 46.191406 128.378906 Z M 46.191406 114.378906 "/>
<g style="fill:rgb(100%,0%,0%);fill-opacity:1;">
  <use xlink:href="#glyph0-2" x="46.191406" y="125.517578"/>
</g>
</g>
</svg>

<svg xmlns="http://www.w3.org/2000/svg" xmlns:xlink="http://www.w3.org/1999/xlink" width="300pt" height="300pt" viewBox="0 0 300 300"><defs><symbol overflow="visible"><path d="M.594 2.125V-8.47h6V2.126zm.672-.672h4.671V-7.78h-4.67zm0 0"/></symbol><symbol overflow="visible" id="a"><path d="M1.172-8.75h1.594l3.89 7.313V-8.75h1.14V0H6.204L2.328-7.313V0H1.172zm0 0"/></symbol><symbol overflow="visible" id="b"><path d="M4.734-7.953c-.867 0-1.554.324-2.062.97-.5.635-.75 1.51-.75 2.624 0 1.094.25 1.965.75 2.61.508.637 1.195.953 2.062.953.852 0 1.532-.316 2.032-.953.507-.645.765-1.516.765-2.61 0-1.113-.257-1.988-.764-2.624-.5-.645-1.18-.97-2.032-.97zm0-.953c1.22 0 2.192.414 2.922 1.234.74.824 1.11 1.93 1.11 3.313 0 1.376-.37 2.477-1.11 3.298C6.926-.24 5.953.17 4.734.17c-1.23 0-2.214-.41-2.953-1.234C1.04-1.882.673-2.984.673-4.36c0-1.382.367-2.488 1.11-3.312.738-.82 1.722-1.234 2.952-1.234zm0 0"/></symbol></defs><g><path fill="#fff" d="M0 0h300v300H0z"/><path d="M264.75 161.227l-13.47-6.602" stroke-width="1.2" stroke="#000" stroke-miterlimit="10" fill="none"/><path d="M251.28 154.625l-13.464-6.598M237.816 148.027l-12.45 8.364" stroke-width="1.2" stroke="#00f" stroke-miterlimit="10" fill="none"/><path d="M225.367 156.39l-12.45 8.364" stroke-width="1.2" stroke="#000" stroke-miterlimit="10" fill="none"/><path d="M237.816 148.027l-1.02-14.96" stroke-width="1.2" stroke="#00f" stroke-miterlimit="10" fill="none"/><path d="M236.797 133.066l-1.02-14.964" stroke-width="1.2" stroke="#000" stroke-miterlimit="10" fill="none"/><path d="M233.816 141.027h9v14h-9zm0 0" fill="#fff"/><use xlink:href="#a" x="233.816" y="152.166" fill="#00f"/><path d="M212.918 164.754l2.04 29.926M214.957 194.68l25.406 15.94M213.746 202.254l20.324 12.75" stroke-width="1.2" stroke="#000" stroke-miterlimit="10" fill="none"/><path d="M191.94 213.918l11.51-9.62" stroke-width="1.2" stroke="#f00" stroke-miterlimit="10" fill="none"/><path d="M203.45 204.297l11.507-9.617M240.363 210.62l-7.308 29.09M233.055 239.71l-29.926 2.04M229.582 232.875l-23.94 1.63M203.13 241.75l-5.595-13.918" stroke-width="1.2" stroke="#000" stroke-miterlimit="10" fill="none"/><path d="M197.535 227.832l-5.594-13.914" stroke-width="1.2" stroke="#f00" stroke-miterlimit="10" fill="none"/><path d="M186.94 206.918h10v14h-10zm0 0" fill="#fff"/><use xlink:href="#b" x="186.941" y="218.057" fill="#f00"/><path d="M235.777 118.102l12.45-8.364" stroke-width="1.2" stroke="#000" stroke-miterlimit="10" fill="none"/><path d="M248.227 109.738l12.45-8.363" stroke-width="1.2" stroke="#00f" stroke-miterlimit="10" fill="none"/><path d="M234.332 110.57l9.957-6.69" stroke-width="1.2" stroke="#000" stroke-miterlimit="10" fill="none"/><path d="M244.29 103.88l9.96-6.692" stroke-width="1.2" stroke="#00f" stroke-miterlimit="10" fill="none"/><path d="M208.844 104.902l26.933 13.2" stroke-width="1.2" stroke="#000" stroke-miterlimit="10" fill="none"/><path d="M260.676 101.375l-1.02-14.96" stroke-width="1.2" stroke="#00f" stroke-miterlimit="10" fill="none"/><path d="M259.656 86.414l-1.02-14.965" stroke-width="1.2" stroke="#000" stroke-miterlimit="10" fill="none"/><path d="M256.676 94.375h9v14h-9zm0 0" fill="#fff"/><use xlink:href="#a" x="256.676" y="105.514" fill="#00f"/><path d="M258.637 71.45l-13.465-6.598" stroke-width="1.2" stroke="#000" stroke-miterlimit="10" fill="none"/><path d="M245.172 64.852l-13.47-6.602" stroke-width="1.2" stroke="#00f" stroke-miterlimit="10" fill="none"/><path d="M252.84 76.47l-10.774-5.282" stroke-width="1.2" stroke="#000" stroke-miterlimit="10" fill="none"/><path d="M242.066 71.188L231.29 65.91M231.703 58.25l-12.45 8.363" stroke-width="1.2" stroke="#00f" stroke-miterlimit="10" fill="none"/><path d="M219.254 66.613l-12.45 8.367" stroke-width="1.2" stroke="#000" stroke-miterlimit="10" fill="none"/><path d="M227.703 51.25h9v14h-9zm0 0" fill="#fff"/><use xlink:href="#a" x="227.703" y="62.389" fill="#00f"/><path d="M206.805 74.98l2.04 29.922M199.97 78.45l1.628 23.94M179.87 61.78l26.935 13.2M208.844 104.902l-24.9 16.73M183.945 121.633l-26.933-13.2M184.36 113.973l-21.55-10.56M157.012 108.434l-2.04-29.926M157.012 108.434l-24.9 16.726M154.973 78.508L179.87 61.78M161.398 82.69l19.918-13.377M132.113 125.16l-26.933-13.2M126.316 130.176l-21.55-10.555M134.152 155.086l-2.04-29.926M105.18 111.96l-24.9 16.728M80.28 128.688l2.04 29.925M73.445 132.16l1.63 23.942" stroke-width="1.2" stroke="#000" stroke-miterlimit="10" fill="none"/><path d="M51.19 121.38l14.548 3.655" stroke-width="1.2" stroke="#f00" stroke-miterlimit="10" fill="none"/><path d="M65.738 125.035l14.543 3.653M82.32 158.613l26.934 13.2M82.32 158.613l-13.918 5.594" stroke-width="1.2" stroke="#000" stroke-miterlimit="10" fill="none"/><path d="M68.402 164.207L54.488 169.8" stroke-width="1.2" stroke="#f00" stroke-miterlimit="10" fill="none"/><path d="M109.254 171.813l24.898-16.727M107.81 164.28l19.917-13.382" stroke-width="1.2" stroke="#000" stroke-miterlimit="10" fill="none"/><path d="M54.488 169.8l-9.62-11.507" stroke-width="1.2" stroke="#f00" stroke-miterlimit="10" fill="none"/><path d="M44.867 158.293l-9.617-11.508" stroke-width="1.2" stroke="#000" stroke-miterlimit="10" fill="none"/><path d="M49.488 162.8h10v14h-10zm0 0" fill="#fff"/><use xlink:href="#b" x="49.488" y="173.939" fill="#f00"/><path d="M35.25 146.785l7.97-12.703" stroke-width="1.2" stroke="#000" stroke-miterlimit="10" fill="none"/><path d="M43.22 134.082l7.97-12.703" stroke-width="1.2" stroke="#f00" stroke-miterlimit="10" fill="none"/><path d="M46.19 114.38h10v14h-10zm0 0" fill="#fff"/><use xlink:href="#b" x="46.191" y="125.518" fill="#f00"/></g></svg>
